DevCon_2019/Icons/SVG/icon_medium.svg

<svg height="17" viewBox="0 0 20 17" width="20" xmlns="http://www.w3.org/2000/svg"><path d="m16.453118 18.9492487c0-.2460932-.0957027-.4648425-.2871087-.6562485l-1.8456988-2.2148384v-.3281242h5.7831894l4.4296769 9.7616954 3.8964751-9.7616954h5.4960807v.3281242l-1.5996056 1.5175745c-.1367182.1093749-.191406.2597648-.1640621.4511708v11.1562234c-.0273439.191406.0273439.3417958.1640621.4511708l1.55859 1.5175745v.3281242h-7.7929501v-.3281242l1.5996055-1.5585901c.0820311-.082031.1298827-.1435543.1435544-.1845698.0136716-.0410156.0205077-.1298827.0205077-.266601v-9.0234159l-4.4296769 11.3202855h-.6152329l-5.208972-11.3202855v7.5878725c-.0273439.3281242.0683594.6152329.2871087.8613261l2.0917919 2.5429627v.3281242h-5.9062359v-.3281242l2.0917919-2.5429627c.2460931-.2460932.3417958-.5332019.2871087-.8613261z" fill="#eef0f2" fill-rule="evenodd" transform="translate(-14 -15)"/></svg>

<?xml version="1.0" encoding="UTF-8"?>
<svg width="20px" height="17px" viewBox="0 0 20 17" version="1.1" xmlns="http://www.w3.org/2000/svg" xmlns:xlink="http://www.w3.org/1999/xlink">
    <!-- Generator: Sketch 52.6 (67491) - http://www.bohemiancoding.com/sketch -->
    <title></title>
    <desc>Created with Sketch.</desc>
    <g id="Page-1" stroke="none" stroke-width="1" fill="none" fill-rule="evenodd">
        <g id="DESKTOP-1024PX" transform="translate(-229.000000, -6795.000000)" fill="#EEF0F2">
            <g id="FOOTER" transform="translate(0.000000, 6331.000000)">
                <g id="COLUMN-#1" transform="translate(10.000000, 63.000000)">
                    <g id="FOLLOW-US" transform="translate(0.000000, 339.000000)">
                        <g id="MEDIUM" transform="translate(205.000000, 47.000000)">
                            <path d="M16.453118,18.9492487 C16.453118,18.7031555 16.3574153,18.4844062 16.1660093,18.2930002 L14.3203105,16.0781618 L14.3203105,15.7500376 L20.1034999,15.7500376 L24.5331768,25.511733 L28.4296519,15.7500376 L33.9257326,15.7500376 L33.9257326,16.0781618 L32.326127,17.5957363 C32.1894088,17.7051112 32.134721,17.8555011 32.1620649,18.0469071 L32.1620649,29.2031305 C32.134721,29.3945365 32.1894088,29.5449263 32.326127,29.6543013 L33.884717,31.1718758 L33.884717,31.5 L26.0917669,31.5 L26.0917669,31.1718758 L27.6913724,29.6132857 C27.7734035,29.5312547 27.8212551,29.4697314 27.8349268,29.4287159 C27.8485984,29.3877003 27.8554345,29.2988332 27.8554345,29.1621149 L27.8554345,20.138699 L23.4257576,31.4589845 L22.8105247,31.4589845 L17.6015527,20.138699 L17.6015527,27.7265715 C17.5742088,28.0546957 17.6699121,28.3418044 17.8886614,28.5878976 L19.9804533,31.1308603 L19.9804533,31.4589845 L14.0742174,31.4589845 L14.0742174,31.1308603 L16.1660093,28.5878976 C16.4121024,28.3418044 16.5078051,28.0546957 16.453118,27.7265715 L16.453118,18.9492487 Z" id=""></path>
                        </g>
                    </g>
                </g>
            </g>
        </g>
    </g>
</svg>
